X:1
T:Ringing, Sweetly Ringing
T:Ringing, Sweetly Ringing
T:Theodore Edson Perkins
T:Frances Jane  (Fanny) Crosby, 1868
T:Public Domain Courtesy of the Cyber Hymnal™
T:Public Domain Courtesy of the Cyber Hymnal™
C:Theodore Edson Perkins
Z:Public Domain
Z:Courtesy of the Cyber Hymnal™
%%score ( 1 2 ) ( 3 4 )
L:1/8
Q:1/4=90
M:4/4
K:Bb
V:1 treble 
V:2 treble 
V:3 bass 
V:4 bass 
V:1
 [DF][DF][DF][DF] [EG][DF] z [DF] | [DB][DB][Fd][Ec] [DB]2 z2 | [DF][DF][DF][DF] [EG][DF] z [DB] | %3
w: 1.~Ring- ing, sweet- ly ring- ing, The|cheer- ful Sab- bath bells;|Ring- ing, sweet- ly ring- ing, The|
w: 2.~Ring- ing, sweet- ly ring- ing, Their|sil- ver chimes we love;|Ring- ing, sweet- ly ring- ing, Their|
w: 3.~Ring- ing, sweet- ly ring- ing, Those|cheer- ful Sab- bath bells;|Ring- ing, sweet- ly ring- ing, Those|
 [CA][FA][=EB][EG] F2 z [DF] | [DF]2 [EG][EA] [DB]2 [CA][DB] | [Ec]2 ([DB][Ec]) [Fd]2 z [DF] | %6
w: cheer- ful Sab- bath bells. We|lin- ger a mo- ment their|call to * hear, Then|
w: sil- ver chimes we love. A|mis- sion of peace to the|heart they * bear, A|
w: cheer- ful Sab- bath bells. O!|let us be grate- ful to|God a- * bove, Who|
 [DF]2 (GA) [DB]2 [CA][DB] | [Ec]2 ([DB][Ec]) [Fd]2 z2 | [Fd]2 [Fd][Ec] [DB]2 ([DB][FA]) | %9
w: haste a- * way to our|school so * dear;|O- ver the green- wood *|
w: wel- come * call to the|house of * prayer;|Tell- ing of rap- tures, *|
w: crown- eth~our * days with the|light of * love,|Bless- èd Re- deem- er, *|
 [EG]2 [EG][EA] [DB]2 z2 | [Ac]2 [Ac][Ac] [Ac]2 ([Ac][GB]) | [FA]<[FA] [GB]2 [Ac]2 z || %12
w: joy- ous and free,|Sing- ing with glad- ness, *|hap- py are we.|
w: tell- ing of rest,|Man- sions of glo- ry, *|tran- quil and blest.|
w: ev- er to Thee,|Praise from Thy child- ren *|of- fered shall be.|
"^Refrain" F | [DB]2 [Fd][Ec] [DB][EG][DF][DF] | [DB]2 [Fd][Ec] [DB][EG] [DF]2 | %15
w: |||
w: While|o- ver the dist- ant hill Their|mu- sic is float- ing still,|
w: |||
 [DB]2 [DB]2 [Fd][DB] z2 | [EG][GB] z2 [DF][B,D] z2 | [DF]2 [DB]>[Fd] [Fc]2 z2 | %18
w: |||
w: Hear the e- cho,|e- cho, e- cho;|Sweet Sab- bath bells,|
w: |||
 [DB]2 [DB]2 [Fd][DB] z2 | [EG][GB] z2 [DF][B,D] z2 | [DF]2 [DB]>[Ec] [DB]2 z2 |] %21
w: |||
w: Hear the e- cho,|e- cho, e- cho,|Sweet Sab- bath bells.|
w: |||
V:2
 x8 | x8 | x8 | x4 F2 x2 | x8 | x8 | x2 E2 x4 | x8 | x8 | x8 | x8 | x7 || F | x8 | x8 | x8 | x8 | %17
 x8 | x8 | x8 | x8 |] %21
V:3
 [B,,B,][B,,B,][B,,B,][B,,B,] [B,,B,][B,,B,] z [B,,B,] | [B,,F,][B,,F,]F,[F,A,] [B,,B,]2 z2 | %2
 [B,,B,][B,,B,][B,,B,][B,,B,] [B,,B,][B,,B,] z [B,,F,] | %3
 [C,F,][C,F,][C,G,][C,B,] [F,A,]2 z [B,,B,] | [B,,B,]2 [B,,B,][B,,F,] [B,,F,]2 [B,,F,][B,,F,] | %5
 [F,A,]2 (B,A,) B,2 z [B,,B,] | [B,,B,]2 [B,,B,][B,,F,] [B,,F,]2 [B,,F,][B,,F,] | %7
 [F,A,]2 (B,A,) B,2 z2 | [B,,B,]2 [B,,B,][B,,B,] [B,,B,]2 [B,,B,]2 | %9
 [E,B,]2 [E,B,][C,F,] [B,,F,]2 z2 | [F,C]2 [F,C][F,C] [F,C]2 [F,C]2 | %11
 [F,C]<[F,C] [C,C]2 [F,C]2 z || F, | [B,,F,]2 [B,,F,][B,,F,] [B,,B,][B,,B,][B,,B,][B,,B,] | %14
 [B,,F,]2 [B,,F,][B,,F,] [B,,B,][B,,B,] [B,,B,]2 | [B,,B,]2 [B,,B,]2 [B,,B,][B,,F,] z2 | %16
 [E,B,][E,B,] z2 [B,,B,][B,,F,] z2 | [B,,B,]2 [B,,F,]>[B,,B,] [F,A,]2 z2 | %18
 [B,,B,]2 [B,,B,]2 [B,,B,][B,,F,] z2 | [E,B,][E,B,] z2 [B,,B,][B,,F,] z2 | %20
 [F,B,]2 F,>F, [B,,F,]2 z2 |] %21
V:4
 x8 | x2 F, x5 | x8 | x8 | x8 | x2 F,2 B,2 x2 | x8 | x2 F,2 B,2 x2 | x8 | x8 | x8 | x7 || F, | x8 | %14
 x8 | x8 | x8 | x8 | x8 | x8 | x2 F,>F, x4 |] %21

